packages/ffe-icons/icons/filled/md/file_copy.svg

<svg xmlns="http://www.w3.org/2000/svg" height="24" viewBox="0 -960 960 960" width="24"><path d="M747.691-220.001H332.309q-30.308 0-51.308-21t-21-51.308v-535.382q0-30.308 21-51.308t51.308-21h247.769q14.461 0 27.807 5.616 13.346 5.615 23.193 15.461l167.844 167.844q9.846 9.847 15.461 23.193 5.616 13.346 5.616 27.807v367.769q0 30.308-21 51.308t-51.308 21Zm12.309-440L580.001-840v131.538q0 20.384 14.039 34.422 14.038 14.039 34.422 14.039H760Zm-587.691 600q-30.308 0-51.308-21t-21-51.308v-497.69q0-12.769 8.616-21.384 8.615-8.616 21.384-8.616t21.384 8.616Q160-642.768 160-629.999v497.69q0 4.616 3.846 8.463 3.847 3.846 8.463 3.846h377.69q12.769 0 21.384 8.615 8.616 8.615 8.616 21.384 0 12.77-8.616 21.384Q562.768-60 549.999-60h-377.69Z"/></svg>

<svg xmlns="http://www.w3.org/2000/svg" height="24" viewBox="0 -960 960 960" width="24"><path d="M747.69-220H332.31Q302-220 281-241q-21-21-21-51.31v-535.38Q260-858 281-879q21-21 51.31-21h247.77q14.46 0 27.81 5.62 13.34 5.61 23.19 15.46l167.84 167.84q9.85 9.85 15.46 23.19 5.62 13.35 5.62 27.81v367.77Q820-262 799-241q-21 21-51.31 21ZM760-660 580-840v131.54q0 20.38 14.04 34.42Q608.08-660 628.46-660H760ZM172.31-60Q142-60 121-81q-21-21-21-51.31V-630q0-12.77 8.62-21.38Q117.23-660 130-660t21.38 8.62Q160-642.77 160-630v497.69q0 4.62 3.85 8.46 3.84 3.85 8.46 3.85H550q12.77 0 21.38 8.62Q580-102.77 580-90t-8.62 21.38Q562.77-60 550-60H172.31Z"/></svg>
